assets/Smiling face with heart-eyes/Flat/smiling_face_with_heart-eyes_flat.svg

<svg width="32" height="32" viewBox="0 0 32 32" fill="none" xmlns="http://www.w3.org/2000/svg">
<path d="M15.9989 29.9978C25.3333 29.9978 29.9978 23.7303 29.9978 15.9989C29.9978 8.26751 25.3333 2 15.9989 2C6.66443 2 2 8.26751 2 15.9989C2 23.7303 6.66443 29.9978 15.9989 29.9978Z" fill="#FFB02E"/>
<path d="M16 25C7 25 7 16 7 16H25C25 16 25 25 16 25Z" fill="#BB1D80"/>
<path d="M8 16.5V16H24V16.5C24 17.0523 23.5523 17.5 23 17.5H9C8.44772 17.5 8 17.0523 8 16.5Z" fill="white"/>
<path d="M3.18104 9.75037C5.19703 12.0771 7.8791 13.096 9.25386 13.4894C9.81699 13.6506 10.4079 13.4889 10.8249 13.0776C12.0184 11.9005 14.4238 9.19933 14.938 6.11531C15.656 1.80872 10.256 0.495856 8.07985 4.04542C2.98933 1.65437 0.296489 6.42127 3.18104 9.75037Z" fill="#F70A8D"/>
<path d="M28.8172 9.75198C26.8022 12.0775 24.1215 13.0961 22.7473 13.4894C22.1841 13.6506 21.5932 13.4889 21.1762 13.0776C19.9831 11.9008 17.579 9.20094 17.0651 6.11839C16.3474 1.81356 21.7452 0.50123 23.9204 4.04935C29.0089 1.65928 31.7006 6.42423 28.8172 9.75198Z" fill="#F70A8D"/>
</svg>

<svg xmlns="http://www.w3.org/2000/svg" width="32" height="32" fill="none"><path fill="#FFB02E" d="M15.999 29.998c9.334 0 13.999-6.268 13.999-14 0-7.73-4.665-13.998-14-13.998C6.665 2 2 8.268 2 15.999c0 7.731 4.664 13.999 13.999 13.999Z"/><path fill="#BB1D80" d="M16 25c-9 0-9-9-9-9h18s0 9-9 9Z"/><path fill="#fff" d="M8 16.5V16h16v.5a1 1 0 0 1-1 1H9a1 1 0 0 1-1-1Z"/><path fill="#F70A8D" d="M3.181 9.75c2.016 2.327 4.698 3.346 6.073 3.74.563.16 1.154-.001 1.57-.412 1.194-1.178 3.6-3.879 4.114-6.963.718-4.306-4.682-5.62-6.858-2.07C2.99 1.655.296 6.421 3.18 9.75ZM28.817 9.752c-2.015 2.325-4.695 3.344-6.07 3.737-.563.162-1.154 0-1.57-.411-1.194-1.177-3.598-3.877-4.112-6.96-.718-4.304 4.68-5.617 6.855-2.069 5.089-2.39 7.78 2.375 4.897 5.703Z"/></svg>
